X:1
T:Title
%%score { 1 | ( 2 3 ) }
L:1/8
M:6/8
K:Ab
V:1 treble nm="Grand Piano"
V:2 bass 
V:3 bass 
V:1
 z3 z2[Q:1/4=84] [CE] | [CE][CF][CG] [CA][DB][Ec] | [Fd]3 [Ec]2 c/c/ | cBA cBA | G3 F2 E/E/ | %5
 [CE][CF][CG] [CA][DB][Ec] | [Fd]3 [Ec]2 [Ec]/[Ec]/ | F[Fd][FB] BAG |[M:5/8] [CA]-[CA]- [CA]3 | %9
[M:1/8] B |[M:3/4] BB BB =AB | c3 c2 c | dd dd cd |[M:5/8] B-B- B3 |[M:1/8] [EB] | %15
[M:3/4] [Ee][Ee] [Ee][Ed] [Ed][Ed] | [Ec]3 [A,DF]2 [DFB] | [DFB][CEA] FE AG | %18
[M:5/8] [CA]-[CA]- [CA]3 |] %19
V:2
 z3 z2 [A,,A,] | [A,,A,][A,,A,][A,,A,] [A,,A,][A,,A,][A,,A,] | [A,,A,]3 [A,,A,]2 [A,E]/[A,E]/ | %3
 [A,E][A,D][A,C] [F,A,=D][F,A,D][F,A,D] | E3 z3 | [A,,A,][A,,A,][A,,A,] [A,,A,][A,,A,][A,,A,] | %6
 [A,,A,]3 [A,,A,]2 [A,,A,]/[A,,A,]/ | [D,A,][D,B,][D,D] [E,CE][E,CE][E,B,D] | %8
[M:5/8] [A,,A,]-[A,,A,]- [A,,A,]3 |[M:1/8] [E,G,E] | %10
[M:3/4] [E,G,E][E,G,E] [E,G,E][E,G,E] [E,_G,E][E,=G,E] | [A,E]3 [A,E]2 [A,E] | %12
 [E,B,E][E,B,E] [E,B,E][E,B,E] [E,=A,E][E,B,E] |[M:5/8] [E,G,E]-[E,G,E]- [E,G,E]3 |[M:1/8] [D,G,] | %15
[M:3/4] [C,A,][C,A,] [B,,A,][B,,G,] [B,,G,][B,,G,] | [A,,A,]3 D,2 B,, | %17
 B,,C, [D,A,D][E,A,C] [E,A,C][E,B,] |[M:5/8] [A,,E,]-[A,,E,]- [A,,E,]3 |] %19
V:3
 x6 | x6 | x6 | x6 | [E,B,]3- [E,B,D]2 [E,G,D]/[E,G,D]/ | x6 | x6 | x6 |[M:5/8] x5 |[M:1/8] x | %10
[M:3/4] x6 | x6 | x6 |[M:5/8] x5 |[M:1/8] x |[M:3/4] x6 | x6 | x6 |[M:5/8] x5 |] %19

